X:52
T:Dick Gossip's
T:Castle Reel, The
R:reel
H:Sometimes played with the parts in the opposite order
Z:id:hn-reel-52
M:C|
K:D
F2AF GFED|F2AF GFED|~E3F GFED|~E3F GFED|
F2AF GFED|F2AF GFED|ABde fgec|1 dfec dBAG:|2 dfec d2ef||
|:gB~B2 gBaB|gB~B2 gfed|(3cBA eA fAeA|(3cBA eA cdef|
gB~B2 gBaB|gB~B2 gfed|cdef gece|1 dfec d2ef:|2 dfec dBAG||
P:Different version of 1st part:
|:F2AF BFAF|F2AF GFED|~E3F GFED|~E3F GFED|
F2AF BFAF|F2AF GFED|(3Bcd ef gece|1 dfec dBAG:|2 dfec d2ef||
<end>
<start>
